src/assets/images/icons/graphicIcon.svg

<svg width="45" height="45" viewBox="0 0 45 45" fill="none" xmlns="http://www.w3.org/2000/svg">
<path d="M8.05957 0.123047C7.52344 0.316406 7.20703 0.624023 6.91699 1.23047C6.75879 1.57324 6.73242 1.82812 6.69727 3.0498L6.66211 4.48242H4.18359C1.98633 4.48242 1.67871 4.5 1.3623 4.64941C0.826172 4.89551 0.439453 5.26465 0.210938 5.75684L0 6.19629V22.5V38.8037L0.210938 39.2432C0.439453 39.7354 0.826172 40.1045 1.3623 40.3506C1.69629 40.5 2.13574 40.5176 8.85938 40.5176C12.7793 40.5176 15.9961 40.4912 15.9961 40.4561C15.9961 40.4297 15.8643 40.1572 15.6973 39.8672C14.1328 37.0547 13.3154 33.1523 13.6143 29.9707C14.0273 25.6992 15.8291 21.876 18.8525 18.8525C20.3555 17.3408 22.0605 16.1367 23.8711 15.293C29.9531 12.4541 36.5713 13.1221 42.1084 17.1475C42.4336 17.3848 42.7236 17.5781 42.75 17.5781C42.7852 17.5781 42.7939 15.0205 42.7852 11.8828L42.7588 6.19629L42.5654 5.82715C42.3018 5.34375 41.8272 4.89551 41.3438 4.66699C41.0098 4.50879 40.79 4.48242 39.6475 4.48242H38.3379L38.3027 3.0498C38.2764 1.85449 38.2412 1.56445 38.083 1.23047C37.8809 0.791016 37.5293 0.404297 37.1338 0.193359C36.7822 0.0175781 35.6572 -0.0439453 35.1563 0.0878906C34.6465 0.228516 33.9873 0.870117 33.8467 1.3623C33.7939 1.55566 33.75 2.33789 33.75 3.09375V4.48242H22.5H11.25V3.09375C11.25 2.33789 11.2061 1.55566 11.1533 1.3623C11.0215 0.896484 10.3535 0.228516 9.8877 0.0966797C9.41309 -0.0351562 8.46387 -0.0175781 8.05957 0.123047Z" fill="#3996F7"/>
<path d="M30.3662 18.0264C27.2109 18.2725 24.1875 19.6787 21.9287 21.9639C17.5078 26.4111 16.6992 33.2227 19.9688 38.5664C21.7793 41.5283 24.7764 43.752 28.125 44.6045C30.1289 45.1143 32.8359 45.1318 34.7344 44.6484C39.6299 43.3916 43.3916 39.6299 44.6484 34.7344C45.1318 32.8359 45.1143 30.1289 44.6045 28.125C43.2861 22.957 38.8652 18.9317 33.6621 18.1582C32.5283 17.9824 31.4121 17.9385 30.3662 18.0264ZM32.5635 22.7813C32.8975 22.957 33.2842 23.3438 33.4424 23.6514C33.6709 24.082 33.75 24.9961 33.75 27.1318V29.2676H34.8926C36.791 29.2676 37.4766 29.54 37.9336 30.4541C38.5752 31.7725 37.8897 33.3545 36.5713 33.6358C36.1582 33.7236 31.3418 33.7236 30.9287 33.6358C30.3662 33.5215 29.8301 33.0908 29.5576 32.5371L29.3115 32.0361V28.125C29.3115 24.2842 29.3115 24.2051 29.5049 23.8008C29.7334 23.3086 30.0498 22.9834 30.542 22.7461C30.9727 22.544 32.1416 22.5615 32.5635 22.7813Z" fill="#7FAEE5"/>
</svg>

<svg xmlns="http://www.w3.org/2000/svg" width="45" height="45" fill="none"><path fill="#3996F7" d="M8.06.123c-.537.193-.853.501-1.143 1.107-.158.343-.185.598-.22 1.82l-.035 1.432H4.184c-2.198 0-2.505.018-2.822.167-.536.247-.923.616-1.151 1.108L0 6.197v32.607l.21.44c.23.491.616.86 1.152 1.107.334.149.774.167 7.497.167 3.92 0 7.137-.027 7.137-.062 0-.026-.132-.299-.299-.589-1.564-2.812-2.382-6.715-2.083-9.896.413-4.272 2.215-8.095 5.238-11.119 1.503-1.511 3.209-2.715 5.02-3.559 6.081-2.839 12.7-2.17 18.236 1.855.326.237.616.43.642.43.035 0 .044-2.557.035-5.695l-.026-5.687-.194-.369a2.877 2.877 0 0 0-1.221-1.16c-.334-.158-.554-.185-1.697-.185h-1.31l-.034-1.432c-.027-1.196-.062-1.486-.22-1.82-.202-.439-.554-.826-.95-1.037-.35-.175-1.476-.237-1.977-.105-.51.14-1.169.782-1.31 1.274-.052.194-.096.976-.096 1.732v1.388h-22.5V3.094c0-.756-.044-1.538-.097-1.732-.132-.466-.8-1.133-1.265-1.265-.475-.132-1.424-.115-1.828.026Z"/><path fill="#7FAEE5" d="M30.366 18.026c-3.155.247-6.178 1.653-8.437 3.938-4.421 4.447-5.23 11.259-1.96 16.602 1.81 2.962 4.807 5.186 8.156 6.038 2.004.51 4.71.528 6.61.044a13.698 13.698 0 0 0 9.913-9.914c.484-1.898.466-4.605-.044-6.609-1.318-5.168-5.739-9.193-10.942-9.967a13.992 13.992 0 0 0-3.296-.132Zm2.197 4.755c.334.176.721.563.88.87.228.431.307 1.345.307 3.48v2.137h1.143c1.898 0 2.584.272 3.04 1.186.642 1.319-.043 2.9-1.362 3.182-.413.088-5.23.088-5.642 0-.563-.114-1.099-.545-1.371-1.099l-.247-.5v-3.912c0-3.84 0-3.92.194-4.324a2.057 2.057 0 0 1 1.037-1.055c.43-.202 1.6-.184 2.021.035Z"/></svg>
